svg/material-icons/sign_language/materialiconsround/20px.svg

<svg xmlns="http://www.w3.org/2000/svg" width="20" height="20" viewBox="0 0 20 20"><path d="M14.88 12.05c.4.38.62.9.62 1.45V17c0 1.1-.9 2-2 2H5.12c-.41 0-.75-.34-.75-.75s.34-.75.75-.75H8.5v-.75H4c-.41 0-.75-.34-.75-.75s.34-.75.75-.75h4.5v-.75H3.25c-.41 0-.75-.34-.75-.75s.34-.75.75-.75H8.5v-.75H4.38c-.41 0-.75-.34-.75-.75s.34-.75.75-.75h5.99l-.7-1.39c-.28-.56-.05-1.23.5-1.51.12-.06.26-.04.35.05l4.36 4.15zM9.84 6.34c-.63.3-.88.46-1.23.89L6.59 5.09c-.29-.3-.27-.77.03-1.06.3-.29.78-.27 1.06.03l2.16 2.28zM8.23 7.91c-.17.41-.22.93-.15 1.34h-.65l-1.7-1.79c-.28-.3-.27-.78.03-1.06.3-.29.78-.27 1.06.03l1.41 1.48zm7.63-3.79-.53 1.46-4.13-4.35a.755.755 0 0 0-1.06-.03c-.3.29-.31.76-.03 1.06l2.84 2.99-.54.52-3.62-3.8a.755.755 0 0 0-1.06-.03c-.3.28-.31.76-.03 1.06l2.83 2.99 4.7 4.68.46.44c.21.2.39.43.55.68l.62-.58c.4-.38.63-.91.63-1.46V3.73c0-.13-.08-.25-.2-.29-.58-.21-1.22.09-1.43.68z"/></svg>

<svg xmlns="http://www.w3.org/2000/svg" enable-background="new 0 0 20 20" height="20" viewBox="0 0 20 20" width="20"><g><rect fill="none" height="20" width="20"/></g><g><path d="M14.88,12.05c0.4,0.38,0.62,0.9,0.62,1.45V17c0,1.1-0.9,2-2,2H5.12c-0.41,0-0.75-0.34-0.75-0.75 c0-0.41,0.34-0.75,0.75-0.75H8.5v-0.75H4c-0.41,0-0.75-0.34-0.75-0.75c0-0.41,0.34-0.75,0.75-0.75h4.5V14.5H3.25 c-0.41,0-0.75-0.34-0.75-0.75C2.5,13.34,2.84,13,3.25,13H8.5v-0.75H4.38c-0.41,0-0.75-0.34-0.75-0.75c0-0.41,0.34-0.75,0.75-0.75 h5.99l-0.7-1.39c-0.28-0.56-0.05-1.23,0.5-1.51c0.12-0.06,0.26-0.04,0.35,0.05L14.88,12.05z M9.84,6.34 C9.21,6.64,8.96,6.8,8.61,7.23L6.59,5.09C6.3,4.79,6.32,4.32,6.62,4.03c0.3-0.29,0.78-0.27,1.06,0.03L9.84,6.34z M8.23,7.91 C8.06,8.32,8.01,8.84,8.08,9.25H7.43l-1.7-1.79C5.45,7.16,5.46,6.68,5.76,6.4c0.3-0.29,0.78-0.27,1.06,0.03L8.23,7.91z M15.86,4.12 l-0.53,1.46L11.2,1.23c-0.29-0.3-0.76-0.31-1.06-0.03c-0.3,0.29-0.31,0.76-0.03,1.06l2.84,2.99l-0.54,0.52L8.79,1.97 c-0.29-0.3-0.76-0.31-1.06-0.03C7.43,2.22,7.42,2.7,7.7,3l2.83,2.99l4.7,4.68l0.46,0.44c0.21,0.2,0.39,0.43,0.55,0.68l0.62-0.58 c0.4-0.38,0.63-0.91,0.63-1.46V3.73c0-0.13-0.08-0.25-0.2-0.29C16.71,3.23,16.07,3.53,15.86,4.12z"/></g></svg>
